image/china-off1.svg

<svg width="34" height="34" viewBox="0 0 34 34" fill="none" xmlns="http://www.w3.org/2000/svg">
<path d="M31.8662 20.1786V11.083L32.2438 10.9697C33.6953 10.5341 33.9999 9.79658 33.9999 9.25457C33.9999 8.71257 33.6951 7.97506 32.2437 7.53964L19.823 3.81339C19.058 3.58389 18.0554 3.45752 17.0001 3.45752C15.9447 3.45752 14.9422 3.58389 14.177 3.81339L1.75638 7.53964C0.304738 7.97506 0 8.71257 0 9.25464C0 9.79665 0.304671 10.5342 1.75631 10.9698L6.40162 12.3634V17.2566C6.40162 18.189 7.0077 19.5024 9.89511 20.4649C11.8076 21.1024 14.3308 21.4535 17 21.4535C19.669 21.4535 22.1923 21.1024 24.1048 20.4649C26.9922 19.5024 27.5983 18.189 27.5983 17.2566V12.3634L29.8739 11.6807V20.1786C28.6352 20.5957 27.7401 21.7675 27.7401 23.1451V27.4128C27.7401 29.1386 29.1441 30.5427 30.87 30.5427C32.5958 30.5427 33.9999 29.1387 33.9999 27.4128V23.1451C34 21.7675 33.1049 20.5957 31.8662 20.1786ZM14.7494 5.72157C15.3255 5.54871 16.1458 5.44964 17.0001 5.44964C17.8543 5.44964 18.6746 5.54871 19.2506 5.7215L31.0275 9.25464L26.3111 10.6696C26.3084 10.6705 26.3057 10.6712 26.303 10.6721L19.2507 12.7878C18.6747 12.9606 17.8544 13.0597 17.0002 13.0597C16.1459 13.0597 15.3255 12.9606 14.7495 12.7878L7.6972 10.6721C7.69448 10.6712 7.69182 10.6705 7.6891 10.6696L2.97267 9.25464L14.7494 5.72157ZM25.6063 17.2565C25.6063 17.3849 25.2445 17.985 23.4749 18.5749C21.7602 19.1465 19.4606 19.4613 17 19.4613C14.5394 19.4613 12.2398 19.1465 10.5252 18.5749C8.75558 17.985 8.3938 17.3849 8.3938 17.2565V12.961L14.177 14.696C14.9421 14.9255 15.9447 15.0518 17.0001 15.0518C18.0554 15.0518 19.058 14.9255 19.8231 14.696L25.6063 12.961V17.2565ZM32.0078 27.4127C32.0078 28.0401 31.4974 28.5505 30.8701 28.5505C30.2427 28.5505 29.7323 28.0401 29.7323 27.4127V23.1451C29.7323 22.5177 30.2427 22.0072 30.8701 22.0072C31.4975 22.0072 32.0078 22.5177 32.0078 23.1451V27.4127Z" fill="#303134"/>
</svg>

<?xml version="1.0" encoding="UTF-8" standalone="no"?>
<svg width="34" xmlns="http://www.w3.org/2000/svg" fill="none" viewBox="0 0 34 34" height="34">
 <path d="m31.866 20.179v-9.096l0.378-0.113c1.451-0.436 1.756-1.1734 1.756-1.7154s-0.305-1.2795-1.756-1.715l-12.421-3.7262c-0.765-0.2295-1.768-0.3559-2.823-0.3559s-2.058 0.1264-2.823 0.3559l-12.421 3.7262c-1.4513 0.4355-1.756 1.173-1.756 1.715s0.30467 1.2794 1.7563 1.7154l4.6453 1.393v4.894c0 0.932 0.6061 2.245 3.4935 3.208 1.9129 0.637 4.4359 0.989 7.1049 0.989s5.192-0.352 7.105-0.989c2.887-0.963 3.493-2.276 3.493-3.208v-4.894l2.276-0.682v8.498c-1.239 0.417-2.134 1.589-2.134 2.966v4.268c0 1.726 1.404 3.13 3.13 3.13s3.13-1.404 3.13-3.13v-4.268c0-1.377-0.895-2.549-2.134-2.966zm-17.117-14.457c0.577-0.1729 1.397-0.272 2.251-0.272s1.675 0.0991 2.251 0.2719l11.777 3.5331-4.717 1.4154c-0.003 0-0.005 0.001-0.008 0.002l-7.052 2.116c-0.576 0.173-1.397 0.272-2.251 0.272s-1.674-0.099-2.25-0.272l-7.0528-2.116c-0.0027-0.001-0.0054-0.002-0.0081-0.002l-4.7164-1.4154 11.776-3.533zm10.857 11.534c0 0.129-0.362 0.729-2.131 1.319-1.715 0.571-4.014 0.886-6.475 0.886s-4.76-0.315-6.475-0.886c-1.7694-0.59-2.1312-1.19-2.1312-1.319v-4.295l5.7832 1.735c0.765 0.23 1.768 0.356 2.823 0.356s2.058-0.126 2.823-0.356l5.783-1.735v4.295zm6.402 10.157c0 0.627-0.511 1.137-1.138 1.137s-1.138-0.51-1.138-1.137v-4.268c0-0.627 0.511-1.138 1.138-1.138 0.628 0 1.138 0.511 1.138 1.138v4.268z" fill="#303134"/>
</svg>
